symbolic/24x24/places/folder-black-yandex-disk.svg

<svg xmlns="http://www.w3.org/2000/svg" width="24" height="24" version="1"><rect style="opacity:.2" width="20" height="12" x="2" y="9.5" rx="1" ry="1"/><path style="fill:#3f3f3f" d="M2 17c0 .554.446 1 1 1h18c.554 0 1-.446 1-1V6c0-.554-.446-1-1-1h-9c-1.5 0-2-2-3.5-2H3c-.554 0-1 .446-1 1"/><rect style="opacity:.2" width="20" height="12" x="2" y="8.5" rx="1" ry="1"/><rect style="fill:#dcdcdc" width="16" height="8" x="4" y="7" rx="1" ry="1"/><rect style="fill:#4f4f4f" width="20" height="12" x="2" y="9" rx="1" ry="1"/><path style="opacity:.1;fill:#fff" d="M3 3c-.554 0-1 .446-1 1v.5c0-.554.446-1 1-1h5.5c1.5 0 2 2 3.5 2h9c.554 0 1 .446 1 1V6c0-.554-.446-1-1-1h-9c-1.5 0-2-2-3.5-2z"/><path style="fill:#c2c2c2" d="M11.546 12.023c-1.778 0-1.364 1.624-2.274 2.113-.032.018-.05.035-.078.052.6-.357 1.341-.656 2.126-.858a8.748 8.748 0 0 1 1.963-.28h.048c-.6-.17-.666-1.027-1.785-1.027zm1.938 1.478a8.672 8.672 0 0 0-1.963.279c-2.194.564-3.757 1.792-3.492 2.741.153.543.89.901 1.986.966l-.002-.012c-.06-.513.266-.96.648-1.262.382-.303.873-.523 1.425-.64.552-.117 1.068-.111 1.5.019.406.122.788.388.882.846 1.099-.616 1.669-1.359 1.504-1.96-.175-.629-1.129-1.004-2.488-.977zM12.831 16a.93 1.788 76.001 0 0-.688.071.93 1.788 76.001 0 0-1.64 1.3.93 1.788 76.001 0 0 1.855.558.93 1.788 76.001 0 0 1.638-1.3.93 1.788 76.001 0 0-1.165-.629z"/></svg>

<svg xmlns="http://www.w3.org/2000/svg" width="24" height="24" version="1">
 <rect style="opacity:0.2" width="20" height="12" x="2" y="9.5" rx="1" ry="1"/>
 <path style="fill:#3f3f3f" d="M 2,17 C 2,17.554 2.446,18 3,18 H 21 C 21.554,18 22,17.554 22,17 V 6 C 22,5.446 21.554,5 21,5 H 12 C 10.5,5 10,3 8.5,3 H 3 C 2.446,3 2,3.446 2,4"/>
 <rect style="opacity:0.2" width="20" height="12" x="2" y="8.5" rx="1" ry="1"/>
 <rect style="fill:#dcdcdc" width="16" height="8" x="4" y="7" rx="1" ry="1"/>
 <rect style="fill:#4f4f4f" width="20" height="12" x="2" y="9" rx="1" ry="1"/>
 <path style="opacity:0.1;fill:#ffffff" d="M 3,3 C 2.446,3 2,3.446 2,4 V 4.5 C 2,3.946 2.446,3.5 3,3.5 H 8.5 C 10,3.5 10.5,5.5 12,5.5 H 21 C 21.554,5.5 22,5.946 22,6.5 V 6 C 22,5.446 21.554,5 21,5 H 12 C 10.5,5 10,3 8.5,3 Z"/>
 <path style="fill:#c2c2c2" d="M 11.546,12.023 C 9.7682,12.023 10.182,13.647 9.2715,14.136 9.2402,14.154 9.2225,14.171 9.1944,14.188 9.7947,13.831 10.535,13.532 11.32,13.33 11.986,13.159 12.661,13.063 13.283,13.05 13.299,13.05 13.315,13.05 13.331,13.05 12.731,12.88 12.665,12.023 11.546,12.023 Z M 13.484,13.501 C 12.861,13.513 12.186,13.609 11.521,13.78 9.3273,14.344 7.7642,15.572 8.0293,16.521 8.1821,17.064 8.9181,17.422 10.015,17.487 10.014,17.483 10.013,17.48 10.013,17.475 9.9535,16.962 10.279,16.515 10.661,16.213 11.043,15.91 11.534,15.69 12.086,15.573 12.638,15.456 13.154,15.462 13.586,15.592 13.992,15.714 14.374,15.98 14.468,16.438 15.567,15.822 16.137,15.079 15.972,14.478 15.797,13.849 14.843,13.474 13.484,13.501 Z M 12.831,16 A 0.92931,1.7885 76.001 0 0 12.143,16.071 0.92931,1.7885 76.001 0 0 10.503,17.371 0.92931,1.7885 76.001 0 0 12.358,17.929 0.92931,1.7885 76.001 0 0 13.996,16.629 0.92931,1.7885 76.001 0 0 12.831,16 Z"/>
</svg>
